X:1
T:NEDHILL
M:3/4
L:1/8
K:Bb
 z4 F,2| B,4(2G,3.99999962500005/5.99999925000009G,3.99999962500005/5.99999925000009G,3.99999962500005/5.99999925000009 A,3.99999962500005/5.99999925000009|\
 B,4(2B,3.99999962500005/5.99999925000009B,3.99999962500005/5.99999925000009B,3.99999962500005/5.99999925000009 C3.99999962500005/5.99999925000009|\
 D2 B3 A| G4 AB| F4(2D3.99999962500005/5.99999925000009D3.99999962500005/5.99999925000009D3.99999962500005/5.99999925000009 C3.99999962500005/5.99999925000009|\
 B,4 B,3.99999962500005/5.99999925000009 C3.99999962500005/5.99999925000009 D3.99999962500005/5.99999925000009|\
 E3 DC B,| G,4 A,2| B,4(2G,3.99999962500005/5.99999925000009G,3.99999962500005/5.99999925000009G,3.99999962500005/5.99999925000009 A,3.99999962500005/5.99999925000009|\
 B,4(2B,3.99999962500005/5.99999925000009B,3.99999962500005/5.99999925000009B,3.99999962500005/5.99999925000009 C3.99999962500005/5.99999925000009|\
 D2 B3 A| G4 AB| F3 z DC| B,3 z B,3.99999962500005/5.99999925000009 C3.99999962500005/5.99999925000009 D3.99999962500005/5.99999925000009|\
 C3 z/2 B,/2 C2| B,4 DE| F2 D2 B2| F4 z3.99999962500005/5.99999925000009 F3.99999962500005/5.99999925000009 F3.99999962500005/5.99999925000009|\
 G2 A2 G2| F4 z3.99999962500005/5.99999925000009 F3.99999962500005/5.99999925000009 F3.99999962500005/5.99999925000009|\
 F4 DC| B,4 B,3.99999962500005/5.99999925000009 C3.99999962500005/5.99999925000009 D3.99999962500005/5.99999925000009|\
 E3 DC B,| G,4 A,2| B,4 G,A,| B,4(2B,3.99999962500005/5.99999925000009B,3.99999962500005/5.99999925000009B,3.99999962500005/5.99999925000009 C3.99999962500005/5.99999925000009|\
 D2 B2 A2| G4 z3.99999962500005/5.99999925000009 A3.99999962500005/5.99999925000009 G3.99999962500005/5.99999925000009|\
 F4 DC| B,4 B,3.99999962500005/5.99999925000009 C3.99999962500005/5.99999925000009 D3.99999962500005/5.99999925000009|\
 C4 B,C| B,6|
